epam-assets/icon-sources/18/action-pin_off.svg

<svg width="18" height="18" viewBox="0 0 18 18" fill="none" xmlns="http://www.w3.org/2000/svg">
<g id="18/action-pin_off">
<g id="icon">
<path d="M6.75 6.60109V6.60004L11.4 11.25H11.3989L15.5828 15.4338L14.5221 16.4945L10.5 12.4724V16.5H9V11.25H5.25V9.75L6.51379 8.48621L2.26538 4.23779L3.32604 3.17713L6.75 6.60109Z" fill="#6C6F80"/>
<path d="M14.25 11.25H13.5213L6.75 4.47872V3H6V1.5H13.5V3H12.75V8.25L14.25 9.75V11.25Z" fill="#6C6F80"/>
</g>
</g>
</svg>

<svg xmlns="http://www.w3.org/2000/svg" width="18" height="18" fill="none" viewBox="0 0 18 18">
  <path fill="#6C6F80" d="M6.75 6.601V6.6l4.65 4.65h-.001l4.184 4.184-1.06 1.06-4.023-4.022V16.5H9v-5.25H5.25v-1.5l1.264-1.264-4.249-4.248 1.061-1.06L6.75 6.6Zm7.5 4.649h-.729L6.75 4.479V3H6V1.5h7.5V3h-.75v5.25l1.5 1.5v1.5Z"/>
</svg>
